X:1
T:French Broad
T:William Walker, 1847 E minor         Alto by William Walker, 1867
T:Transcribed from Southern Harmony, 1847 and Christian Harmony, 1867.
T:William Walker, 1831      88. 88. (L. M.)            
%%score [ 1 2 3 4 ]
L:1/8
Q:1/4=100
M:4/4
K:G
V:1 treble nm="Tr." snm="Tr."
V:2 treble nm="A." snm="C."
V:3 treble-8 nm="T." snm="T."
V:4 bass nm="B." snm="B."
V:1
"_1. High o'er the hills the mountains rise,  Their summits tower toward the skies;     But far above them I must dwell;   Or  sink  beneath  the   flames of hell.  But\n2. Oh, God! for–bid  that  I  should  fall    And lose my ev – er – las – ting  all;        But  may I rise on wings of love,   And soar  to  the   blest  world  above.   But" B4 G2 G2 | %1
 B4 d4 | B2 B2 B4 | d4 B2 A2 | G4 B4 | B2 d2 e4- | e4 B4 |: d2 B2 e4 | B4 A2 B2 | d4 B4 | %10
 B2 B2 e4 | d4 B2 B2 |1 B4 B4 :|2 B8 |] %14
V:2
"_3. Although  I  walk  the mountains high,  Ere long my bo – dy   low  must  lie,   And in some lonesome place must rot,  And by the li – ving      be  for –got.  And\n4. There  it  must  lie  till  that  great  day,  When Gabriel's awful trump shall say,   A –rise,  the  judgment day is come,  When all must hear their final doom.  A–" G4 B2 B2 | %1
 G4 D4 | D2 D2 G4 | D4 G2 F2 | E4 G4 | G2 F2 E4- | E4 G4 |: G2 G2 E4 | E4 D2 G2 | F4 E4 | %10
 G2 G2 B4 | D4 D2 D2 |1 [B,E]4 G4 :|2 [B,E]8 |] %14
V:3
"_5.  If  not  prepared,  then     I  must  go   Down  to  e – ter – nal  pain  and  woe,   With  devils  there  I  must remain,  And  never  more  re –  turn  a – gain.  With\n6.  But if prepared, oh, blessed thought!   I'll  rise  a – bove    the  mountain's top,   And there remain for ev–er–more   On  Canaan's peaceful,  happy  shore.   And" B4 G2 E2 | %1
 G4 (A3 G) | F2 F2 E4 | A4 B2 d2 | e4 (f e3) | d2 A2 B4- | B4 e4 |: d2 e2 B4 | G4 d2 B2 | A4 B4 | %10
 G2 E2 G4 | (A3 G) F2 F2 |1 E4 e4 :|2 E8 |] %14
V:4
"_________________________________________________________________________________________________\n\"This song was composed by the author [William Walker] in the fall of 1831, while traveling over the mountains, \n   on French Broad River, in North Carolina and Tennessee\" (\nSouthern Harmony\n 1847, p. 265).\n\"I learned the air of this tune of my dear mother, when only five years old\" (William Walker 1867): about 1814.\nThis is related to several English folk songs (Jackson 1953a, No. 97).\n________________________________________________\nEdited by B. C. Johnston, 2018\nThe original has a \nfermata\n on the last note of measure 6; replaced by a tied half-note in next measure;\n    the rest of tune re-barred.""_7. Oh!  when I think of that blest world,  Where all God's people dwell in love,         I  oft–times long with them lo be  And dwell in heav'n  e –ter –nal – ly.   I\n8. Then will I  sing God's praises there, Who brought me through my troubles here  I'll  sing,  and  be  for–ev–er  blest. Find   sweet   and  everlasting   rest.   I'll" E,4 B,,2 E,2 | %1
 E,4 D,4 | B,,2 B,,2 E,4 | D,4 E,2 D,2 | G,4 E,4 | D,2 D,2 E,4- | E,4 E,4 |: B,2 B,2 G,4 | %8
 B,4 A,2 G,2 | D,4 E,4 | E,2 G,2 E,4 | D,4 B,,2 B,,2 |1 E,4 E,4 :|2 E,8 |] %14

